X:1
T:Title
%%score ( 1 2 3 ) { ( 4 7 ) | ( 5 6 ) }
L:1/8
Q:1/4=107
M:4/4
K:Ab
V:1 treble nm="Grand Piano, Soprano"
V:2 treble 
V:3 treble 
V:4 bass nm="Choir Pad, Epstein, 87.87.86.86"
V:7 bass 
V:5 bass 
V:6 bass 
V:1
 [Ec]2 [EG]2 [EA]2 =E2 | z2 .c4 z2 | [DF]2 [DA]2 [DG]2 [DF]2 | [DG]2 [=DF]4 E2- | %4
w: By~A.~Epstein,~1921 * * *||||
 E2 [FA]2 [DG][DF] [C=E]2 | d2 .c4 z2 | c2 z2 z2 B2- | B z z2 z4 | z2 .B4 z2 | z2 .d4 z2 | %10
w: ||||||
 [FB]2 [F_c]2- [Fc][Fc] [FB]2 | [FA]2 [EG]6 | E2 [Ee]2- [Ee][Ed] [Ec]2 | z2 .d4 z2 | %14
w: ||||
 [DF]2 [CE]2 [Ec]2 [DB]2- | [DB][DE] [CA]6- | [CA]2 z2 z4 |] %17
w: |||
V:2
 x8 | F2 F2 z c [FB]2 | x8 | x8 | x8 | DA G2 F[GB] A2 | F_G [=Gc]2 [GB]2 =D2 | %7
 z =D D2- [DE]2 [B,E]2 | E2 E2 G[FB] [Fc]2 | [Fc]2 F2 z c [FB]2 | x8 | x8 | x8 | %13
 [EF]2 D2 z =A [FB]2 | x8 | x8 | x8 |] %17
V:3
 x8 | z4 F2 z2 | x8 | x8 | x8 | x8 | x8 | B,2 B,2 z4 | x8 | z4 F2 z2 | x8 | x8 | x8 | z4 E2 z2 | %14
 x8 | x8 | x8 |] %17
V:4
 E,2 D2 C2 B,2 | A,2 A,2 =A,2 B,2 | B,2 B,2 B,2 A,2 | B,2 _C4[K:treble] =C2- | C2 C2 B,B, G,2 | %5
 A,2 C2- C/ z/ C C2 | C2 E2[K:bass] B,2 B,2 | A,2 A,4 G,2 | E,2 .G,4 =A,2 | =A,2 B,2 A,2 B,2 | %10
 B,2 A,2- A,A, B,2 | _C2 B,6 | G,2 A,2 G,2 F,2 | =A,2 F,2 F,2 F,2 | A,2 A,2 A,2 F,2 | G,2 z2 z4 | %16
 z8 |] %17
V:5
 A,,2 B,,2 C,2 C,2 | D,2 F,2 E,2 D,2 | B,,2 E,2 E,2 E,2 | E,2 A,,4 A,,2- | A,,2 F,2 B,,B,, C,2 | %5
 F,2 =E,2 =D,E, F,2 | A,=A, B,2 z2 B,,2 | B,,2 E,4 E,2 | z2 E,2 z G, C,2 | C,2 B,,2 C,2 D,2 | %10
 D,2 =D,2- D,D, D,2 | =D,2 E,6 | D,2 C,2 B,,2 =A,,2 | F,,2 B,,2 C,2 D,2 | B,,2 E,2 E,2 E,2- | %15
 E,2 A,,6- | A,,2 z2 z4 |] %17
V:6
 x8 | x8 | x8 | x8 | x8 | x8 | x8 | x8 | z4 D,2 z2 | x8 | x8 | x8 | x8 | x8 | x8 | x8 | x8 |] %17
V:7
 x8 | x8 | x8 | x6[K:treble] x2 | x8 | x8 | x4[K:bass] x4 | x8 | x8 | x8 | x8 | x8 | x8 | x8 | x8 | %15
 z E, A,6- | A,2 z2 z4 |] %17

